symbolic/24x24/places/folder-green-sync.svg

<svg xmlns="http://www.w3.org/2000/svg" width="24" height="24" version="1">
 <rect style="opacity:0.2" width="20" height="12" x="2" y="9.5" rx="1" ry="1"/>
 <path style="fill:#60924b" d="M 2,17 C 2,17.554 2.446,18 3,18 H 21 C 21.554,18 22,17.554 22,17 V 6 C 22,5.446 21.554,5 21,5 H 12 C 10.5,5 10,3 8.5,3 H 3 C 2.446,3 2,3.446 2,4"/>
 <rect style="opacity:0.2" width="20" height="12" x="2" y="8.5" rx="1" ry="1"/>
 <rect style="fill:#e4e4e4" width="16" height="8" x="4" y="7" rx="1" ry="1"/>
 <rect style="fill:#87b158" width="20" height="12" x="2" y="9" rx="1" ry="1"/>
 <path style="opacity:0.1;fill:#ffffff" d="M 3,3 C 2.446,3 2,3.446 2,4 V 4.5 C 2,3.946 2.446,3.5 3,3.5 H 8.5 C 10,3.5 10.5,5.5 12,5.5 H 21 C 21.554,5.5 22,5.946 22,6.5 V 6 C 22,5.446 21.554,5 21,5 H 12 C 10.5,5 10,3 8.5,3 Z"/>
 <path style="fill:#2f3e1f" d="m 12,11 c -0.754845,0.0016 -1.48894,0.247229 -2.0927741,0.700195 l 0.7158211,0.71582 C 11.031365,12.145444 11.510171,12.000783 12,12 c 1.209502,0 2.218585,0.858848 2.450195,2 H 13.5 L 15,16.5 16.5,14 H 15.459961 C 15.216612,12.304684 13.762645,11 12,11 Z M 8.9999999,12.5 7.5000001,15 h 1.040039 C 8.7833869,16.695315 10.237355,18 12,18 c 0.754845,-0.0016 1.48894,-0.247229 2.092773,-0.700196 l -0.71582,-0.71582 C 12.968635,16.854556 12.489829,16.999217 12,17 10.790498,17 9.7814149,16.141152 9.5498039,15 H 10.5 Z"/>
</svg>

<svg xmlns="http://www.w3.org/2000/svg" width="24" height="24" version="1"><rect style="opacity:.2" width="20" height="12" x="2" y="9.5" rx="1" ry="1"/><path style="fill:#60924b" d="M2 17c0 .554.446 1 1 1h18c.554 0 1-.446 1-1V6c0-.554-.446-1-1-1h-9c-1.5 0-2-2-3.5-2H3c-.554 0-1 .446-1 1"/><rect style="opacity:.2" width="20" height="12" x="2" y="8.5" rx="1" ry="1"/><rect style="fill:#e4e4e4" width="16" height="8" x="4" y="7" rx="1" ry="1"/><rect style="fill:#87b158" width="20" height="12" x="2" y="9" rx="1" ry="1"/><path style="opacity:.1;fill:#fff" d="M3 3c-.554 0-1 .446-1 1v.5c0-.554.446-1 1-1h5.5c1.5 0 2 2 3.5 2h9c.554 0 1 .446 1 1V6c0-.554-.446-1-1-1h-9c-1.5 0-2-2-3.5-2z"/><path style="fill:#2f3e1f" d="M12 11a3.5 3.5 0 0 0-2.093.7l.716.716A2.501 2.501 0 0 1 14.45 14h-.95l1.5 2.5 1.5-2.5h-1.04A3.498 3.498 0 0 0 12 11zm-3 1.5L7.5 15h1.04A3.498 3.498 0 0 0 12 18a3.5 3.5 0 0 0 2.093-.7l-.716-.716A2.501 2.501 0 0 1 9.55 15h.95z"/></svg>
